IMB-X-Files/The-Ambassadors-Assets/65f43207d4858435264165bf_bullet-crop.svg

<svg fill="none" height="75" viewBox="0 0 130 75" width="130" xmlns="http://www.w3.org/2000/svg"><path d="m56.5429 6.4011c2.5015-1.24341 5.1817-1.91965 7.9736-1.91965 2.2558 0 4.4223.43628 6.4548 1.24341 9.8273 3.88295 16.9968 16.40434 16.9968 31.23804 0 14.8338-7.1695 27.3552-16.9968 31.2381-2.0549.8072-4.2213 1.2434-6.4548 1.2434-2.7919 0-5.4944-.6762-7.9736-1.9196m0-61.1237c7.1472 4.5156 12.2395 16.4916 12.2395 30.5618 0 14.0703-5.0923 26.0463-12.2395 30.5619m0-61.1237c-1.9655-1.24341-4.0873-1.91965-6.2985-1.91965-2.9482 0-5.74 1.2216-8.2192 3.3594m14.5177 59.68395c-1.9655 1.2434-4.0873 1.9196-6.2985 1.9196-2.9482 0-5.74-1.1997-8.2192-3.3594m0-58.24415c4.4893 5.30085 7.5939 16.36075 7.5939 29.12205m-7.5939-29.12205c4.5116 5.32265 7.5939 16.36075 7.5939 29.12205m-7.5939-29.12205c-1.8315-2.1378-3.8865-3.3594-6.0529-3.3594-3.3056 0-6.3432 2.81404-8.7107 7.48235 1.9208 5.9553 3.1493 14.9428 3.1493 24.9991m19.2082 0c0 12.7614-3.0823 23.7995-7.5939 29.1221m7.5939-29.1221c0 12.7614-3.1046 23.8213-7.5939 29.1221m0 0c-1.8315 2.1378-3.8865 3.3594-6.0529 3.3594-3.3279 0-6.3432-2.814-8.7107-7.4823m3.1493-24.9992c0 10.0564-1.2285 19.0439-3.1493 24.9992m3.1493-24.9992c0-10.0563-1.2062-19.0438-3.127-24.9991-1.5188-4.66831-3.4619-7.48235-5.5837-7.48235-4.8244 0-8.733 14.55015-8.733 32.48145 0 17.9314 3.9086 32.4815 8.733 32.4815 2.1218 0 4.065-2.814 5.5614-7.4823m65.799-57.48065c-2.6579 0-5.2264.3054-7.7055.87257 12.4852 3.40303 21.7769 16.25168 21.7769 31.60888 0 15.3573-9.2694 28.2059-21.7769 31.609 2.4791.5671 5.0476.8725 7.7055.8725 18.3594 0 33.2564-14.5501 33.2564-32.4815 0-17.9313-14.875-32.48145-33.2564-32.48145zm14.0934 32.48145c0-15.3572-9.2909-28.20585-21.7984-31.60888-2.0995-.56717-4.3106-.87257-6.5665-.87257-2.7025 0-5.338.43628-7.8172 1.24341 9.805 3.88295 16.9969 16.40434 16.9969 31.23804 0 14.8338-7.1695 27.3552-16.9969 31.2381 2.4792.8072 5.0924 1.2434 7.8172 1.2434 2.2559 0 4.467-.3054 6.5665-.8725 12.5075-3.4031 21.7984-16.2517 21.7984-31.609zm-99.72536-32.48145c-2.09948 0-3.81926 14.55015-3.81926 32.48145 0 17.9314 1.71978 32.4815 3.81926 32.4815s3.81926-14.5501 3.81926-32.4815c0-17.9313-1.69745-32.48145-3.81926-32.48145z" stroke="#fff" stroke-linecap="round" stroke-linejoin="round" stroke-width="3.60906"/></svg>

<svg width="130" height="75" viewBox="0 0 130 75" fill="none" xmlns="http://www.w3.org/2000/svg">
    <path
        d="M56.5429 6.4011C59.0444 5.15769 61.7246 4.48145 64.5165 4.48145C66.7723 4.48145 68.9388 4.91773 70.9713 5.72486C80.7986 9.60781 87.9681 22.1292 87.9681 36.9629C87.9681 51.7967 80.7986 64.3181 70.9713 68.201C68.9164 69.0082 66.75 69.4444 64.5165 69.4444C61.7246 69.4444 59.0221 68.7682 56.5429 67.5248M56.5429 6.4011C63.6901 10.9167 68.7824 22.8927 68.7824 36.9629C68.7824 51.0332 63.6901 63.0092 56.5429 67.5248M56.5429 6.4011C54.5774 5.15769 52.4556 4.48145 50.2444 4.48145C47.2962 4.48145 44.5044 5.70305 42.0252 7.84085M56.5429 67.5248C54.5774 68.7682 52.4556 69.4444 50.2444 69.4444C47.2962 69.4444 44.5044 68.2447 42.0252 66.085M42.0252 7.84085C46.5145 13.1417 49.6191 24.2016 49.6191 36.9629M42.0252 7.84085C46.5368 13.1635 49.6191 24.2016 49.6191 36.9629M42.0252 7.84085C40.1937 5.70305 38.1387 4.48145 35.9723 4.48145C32.6667 4.48145 29.6291 7.29549 27.2616 11.9638C29.1824 17.9191 30.4109 26.9066 30.4109 36.9629M49.6191 36.9629C49.6191 49.7243 46.5368 60.7624 42.0252 66.085M49.6191 36.9629C49.6191 49.7243 46.5145 60.7842 42.0252 66.085M42.0252 66.085C40.1937 68.2228 38.1387 69.4444 35.9723 69.4444C32.6444 69.4444 29.6291 66.6304 27.2616 61.9621M30.4109 36.9629C30.4109 47.0193 29.1824 56.0068 27.2616 61.9621M30.4109 36.9629C30.4109 26.9066 29.2047 17.9191 27.2839 11.9638C25.7651 7.29549 23.822 4.48145 21.7002 4.48145C16.8758 4.48145 12.9672 19.0316 12.9672 36.9629C12.9672 54.8943 16.8758 69.4444 21.7002 69.4444C23.822 69.4444 25.7652 66.6304 27.2616 61.9621M93.0606 4.48145C90.4027 4.48145 87.8342 4.78685 85.3551 5.35402C97.8403 8.75705 107.132 21.6057 107.132 36.9629C107.132 52.3202 97.8626 65.1688 85.3551 68.5719C87.8342 69.139 90.4027 69.4444 93.0606 69.4444C111.42 69.4444 126.317 54.8943 126.317 36.9629C126.317 19.0316 111.442 4.48145 93.0606 4.48145ZM107.154 36.9629C107.154 21.6057 97.8631 8.75705 85.3556 5.35402C83.2561 4.78685 81.045 4.48145 78.7891 4.48145C76.0866 4.48145 73.4511 4.91773 70.9719 5.72486C80.7769 9.60781 87.9688 22.1292 87.9688 36.9629C87.9688 51.7967 80.7993 64.3181 70.9719 68.201C73.4511 69.0082 76.0643 69.4444 78.7891 69.4444C81.045 69.4444 83.2561 69.139 85.3556 68.5719C97.8631 65.1688 107.154 52.3202 107.154 36.9629ZM7.42864 4.48145C5.32916 4.48145 3.60938 19.0316 3.60938 36.9629C3.60938 54.8943 5.32916 69.4444 7.42864 69.4444C9.52812 69.4444 11.2479 54.8943 11.2479 36.9629C11.2479 19.0316 9.55045 4.48145 7.42864 4.48145Z"
        stroke="white" stroke-width="3.60906" stroke-linecap="round" stroke-linejoin="round" />
</svg>
